svg/u0023.svg

<svg viewBox="0 0 128 128" xmlns="http://www.w3.org/2000/svg">
  <linearGradient id="SVGID_1_" gradientTransform="matrix(1 0 0 -1 0 128)" gradientUnits="userSpaceOnUse" x1="64.005" x2="64.005" y1="102.5" y2="24.72">
    <stop offset="0" stop-color="#757575"/>
    <stop offset="0.5148" stop-color="#504F4F"/>
  </linearGradient>
  <path d="M65.02,80.77h-7.74c-0.96,0-1.79,0.69-1.97,1.64l-3.4,18.35c-0.18,0.95-1,1.64-1.97,1.64 h-4.79c-1.25,0-2.19-1.13-1.97-2.36l3.13-16.89c0.23-1.23-0.72-2.36-1.97-2.36h-7.78c-1.1,0-2-0.9-2-2v-4.33c0-1.1,0.9-2,2-2h10.1 c0.96,0,1.79-0.69,1.97-1.64l2.32-12.56c0.23-1.23-0.72-2.36-1.97-2.36h-8.41c-1.1,0-2-0.9-2-2v-4.33c0-1.1,0.9-2,2-2h10.74 c0.96,0,1.79-0.69,1.97-1.63l3.5-18.67c0.18-0.95,1-1.63,1.97-1.63h4.74c1.25,0,2.2,1.14,1.97,2.37l-3.23,17.2 c-0.23,1.23,0.71,2.37,1.97,2.37H72c0.96,0,1.79-0.69,1.97-1.63l3.5-18.67c0.18-0.95,1-1.63,1.97-1.63h4.74 c1.25,0,2.2,1.14,1.97,2.37l-3.23,17.2c-0.23,1.23,0.71,2.37,1.97,2.37h6.56c1.1,0,2,0.9,2,2v4.33c0,1.1-0.9,2-2,2h-8.89 c-0.96,0-1.79,0.69-1.97,1.64l-2.32,12.56c-0.23,1.23,0.72,2.36,1.97,2.36h7.25c1.1,0,2,0.9,2,2v4.33c0,1.1-0.9,2-2,2H77.9 c-0.96,0-1.79,0.69-1.97,1.64l-3.4,18.35c-0.18,0.95-1,1.64-1.97,1.64h-4.74c-1.25,0-2.19-1.13-1.97-2.36l3.13-16.89 C67.22,81.9,66.27,80.77,65.02,80.77z M59.6,72.44h7.75c0.96,0,1.79-0.69,1.97-1.64l2.32-12.56c0.23-1.23-0.72-2.36-1.97-2.36h-7.75 c-0.96,0-1.79,0.69-1.97,1.64l-2.32,12.56C57.41,71.3,58.35,72.44,59.6,72.44z" fill="url(#SVGID_1_)"/>
</svg>

<svg viewBox="0 0 128 128" xmlns="http://www.w3.org/2000/svg">
  <defs>
    <linearGradient id="SVGID_1_" gradientTransform="matrix(1 0 0 -1 0 0)" gradientUnits="userSpaceOnUse" x1="64.005" x2="64.005" y1="-25.5" y2="-103.28">
      <stop offset="0" stop-color="#757575"/>
      <stop offset="0.5148" stop-color="#504F4F"/>
    </linearGradient>
  </defs>
  <path d="M65.02,80.77 L57.28,80.77 C56.32,80.77 55.49,81.46 55.31,82.41 L51.91,100.76 C51.73,101.71 50.91,102.4 49.94,102.4 L45.15,102.4 C43.9,102.4 42.96,101.27 43.18,100.04 L46.31,83.15 C46.54,81.92 45.59,80.79 44.34,80.79 L36.56,80.79 C35.46,80.79 34.56,79.89 34.56,78.79 L34.56,74.46 C34.56,73.36 35.46,72.46 36.56,72.46 L46.66,72.46 C47.62,72.46 48.45,71.77 48.63,70.82 L50.95,58.26 C51.18,57.03 50.23,55.9 48.98,55.9 L40.57,55.9 C39.47,55.9 38.57,55 38.57,53.9 L38.57,49.57 C38.57,48.47 39.47,47.57 40.57,47.57 L51.31,47.57 C52.27,47.57 53.1,46.88 53.28,45.94 L56.78,27.27 C56.96,26.32 57.78,25.64 58.75,25.64 L63.49,25.64 C64.74,25.64 65.69,26.78 65.46,28.01 L62.23,45.21 C62,46.44 62.94,47.58 64.2,47.58 L72,47.58 C72.96,47.58 73.79,46.89 73.97,45.95 L77.47,27.28 C77.65,26.33 78.47,25.65 79.44,25.65 L84.18,25.65 C85.43,25.65 86.38,26.79 86.15,28.02 L82.92,45.22 C82.69,46.45 83.63,47.59 84.89,47.59 L91.45,47.59 C92.55,47.59 93.45,48.49 93.45,49.59 L93.45,53.92 C93.45,55.02 92.55,55.92 91.45,55.92 L82.56,55.92 C81.6,55.92 80.77,56.61 80.59,57.56 L78.27,70.12 C78.04,71.35 78.99,72.48 80.24,72.48 L87.49,72.48 C88.59,72.48 89.49,73.38 89.49,74.48 L89.49,78.81 C89.49,79.91 88.59,80.81 87.49,80.81 L77.9,80.81 C76.94,80.81 76.11,81.5 75.93,82.45 L72.53,100.8 C72.35,101.75 71.53,102.44 70.56,102.44 L65.82,102.44 C64.57,102.44 63.63,101.31 63.85,100.08 L66.98,83.19 C67.22,81.9 66.27,80.77 65.02,80.77 Z M59.6,72.44 L67.35,72.44 C68.31,72.44 69.14,71.75 69.32,70.8 L71.64,58.24 C71.87,57.01 70.92,55.88 69.67,55.88 L61.92,55.88 C60.96,55.88 60.13,56.57 59.95,57.52 L57.63,70.08 C57.41,71.3 58.35,72.44 59.6,72.44 Z" fill="url(#SVGID_1_)"/>
</svg>
